X:1
T:Hornpipe  "Shotts & Dykehead (transcribed from CD by Bill Boxall)"
M:C|
L:1/8
Q:80
C:Robert B. Mathieson
S:Desert Storm
K:HP
|: {g}e{A}e{gAGAG}A{e}A | \
{g}e/2d/2e/2{a}g/2-g/2f/2{g}e/2d/2 | \
{gef}e{g}d/2e/2{AGAG}Ae |
{g}d/2B/2d/2G/2-G/2e/2{g}d/2B/2- | | \
-B/2e/2{A}e/2f/2{gAGAG}A{e}A | \
{g}e/2d/2e/2{ag}a/2-a/2ge/2 |
{g}d/2B/2d/2{a}g/2-g/2e/2{g}d/2B/2 | \
{g}d/2e/2{g}A{GAG}A2 :: \
{g}e{A}ea{g}a/2g/2- |
g/2e/2{g}f/2d/2{g}e/2A/2{g}B/2d/2 | \
{gef}e{g}d/2e/2{gAGAG}Ae/2{g}d/2- | \
d/2e/2{g}d/2B/2{g}G/2{d}G/2{g}B/2d/2| |
|1 {g}e{A}ea{g}a/2g/2- | \
g/2e/2{g}f/2d/2{gef}e{g}d/2B/2 | \
{g}G/2B/2d/2{a}g/2-g/2e/2{g}d/2B/2 |
{g}d/2e/2{g}A{GAG}A2 :| | \
|2 {g}e{A}e{gAGAG}A{e}A | \
{g}e/2d/2e/2{ag}a/2-a/2ge/2 |
{g}d/2B/2d/2{a}g/2-g/2e/2{g}d/2B/2 | \
{g}d/2e/2{g}A{GAG}A2|]  |: \
{g}e/2d/2e/2{gAGAG}A/2-Ae/2{gAGAG}A/2- |
A/2e/2{A}e/2f/2{a}g/2f/2{g}e/2d/2 | \
{g}e/2d/2e/2{gAGAG}A/2-Ae/2{gAGAG}A/2 | \
{g}d/2{G}d/2{g}B/2d/2{a}g/2e/2{g}d/2B/2| |
{g}e/2d/2e/2{gAGAG}A/2-Ae/2{gAGAG}A/2- | \
A/2e/2{A}e/2f/2{gf}g{a}f/2e/2 | \
{g}d/2B/2d/2{a}g/2-g/2e/2{g}d/2B/2 |
{g}d/2e/2{g}A{GAG}A2 :: \
{ag}ae{A}e{gf}g | \
a/2e/2a/2g/2-g/2e/2{g}d/2B/2 |
{gf}g{a}f/2g/2{a}B/2e/2g/2{a}g/2- | \
g/2B/2{G}B/2g/2B/2d/2g/2e/2 | | \
|1 {ag}a{g}ag/2e/2{g}d/2B/2 |
{g}d/2g/2f/2{gef}e/2-e/2{g}dB/2 | \
{g}G/2B/2d/2{a}g/2-g/2e/2{g}d/2B/2 | \
{g}d/2e/2{g}A{GAG}A2 :|
